!!!COM:	Josquin des Prez
!!!CDT:	~1450-1521/08/27
!!!OTL@@LAT:	De profundis clamavi
!!!AGN:	Motet
!!!SCT:	NJE 15.13
!!!SCA:	New Josquin Edition 15.13
!!!voices:	5
**kern	**kern	**kern	**kern	**kern
*staff5	*staff4	*staff3	*staff2	*staff1
*Ivox	*Ivox	*Ivox	*Ivox	*Ivox
*I"Bassus2	*I"Bassus1	*I"Tenor	*I"Altus	*I"Superius
*I'B2	*I'B1	*I'T	*I'A	*I'S
*clefF4	*clefF4	*clefGv2	*clefGv2	*clefG2
*k[]	*k[]	*k[]	*k[]	*k[]
*M2/1	*M2/1	*M2/1	*M2/1	*M2/1
*met(C|)	*met(C|)	*met(C|)	*met(C|)	*met(C|)
=1-	=1-	=1-	=1-	=1-
!	!LO:TX:Z=10:t=Ad longum	!	!LO:TX:Z=10:t=Ad longum	!LO:TX:Z=30:t=Canon&colon;
!	!	!	!	!LO:TX:Z=30:X=80:i:t=Les trois estas sont assembles
!	!	!	!	!LO:TX:Z=10:X=80:i:t=Pour le soulas des trespasses
1r	0r	0r	0r	1d
1D	.	.	.	1d
=2	=2	=2	=2	=2
1D	0r	1D	0r	1d
1D	.	1D	.	1f
=3	=3	=3	=3	=3
1.F	1D	1D	0r	2f/
.	.	.	.	2.f/
.	1D	[1F	.	.
.	.	.	.	4e/
2F\	.	.	.	4d/
.	.	.	.	4c/
=4	=4	=4	=4	=4
2.F\	1D	2F/]	0r	1d
.	.	2F/	.	.
4G\	.	.	.	.
1A	1F	2.F/	.	1c
.	.	4G/	.	.
=5	=5	=5	=5	=5
2.D\	2F\	1A	1A	1.f
.	2.F\	.	.	.
4E\	.	.	.	.
1F	.	1D	1A	.
.	4E\	.	.	.
.	4D\	.	.	2f/
.	4C/	.	.	.
=6	=6	=6	=6	=6
0r	1D	1F	1A	2f/
.	.	.	.	2f/
.	1C	1G	1c	1e
=7	=7	=7	=7	=7
1.FF	1.F	2A/	2c\	0r
.	.	2A/	2.c\	.
.	.	2.A/	.	.
.	.	.	4B\	.
2FF/	2F\	.	4A/	.
.	.	4B\	4G/	.
=8	=8	=8	=8	=8
2FF/	2F\	1c	1A	0r
2FF/	2F\	.	.	.
1C	1E	1r	1G	.
=9	=9	=9	=9	=9
0r	0r	1.C	1.c	1e
.	.	.	.	2e/
.	.	2C/	2c\	2e/
=10	=10	=10	=10	=10
0r	0r	2C/	2c\	1e
.	.	2C/	2c\	.
.	.	1G	1B	1d
=11	=11	=11	=11	=11
2r	1E	1r	0r	1g
1C	.	.	.	.
.	2E\	2.G/	.	2r
2C/	2E\	.	.	[2g/
.	.	4G/	.	.
=12	=12	=12	=12	=12
2C/	1E	2G/	0r	2g/]
2C/	.	2E/	.	2g/
1D	1D	2F/	.	2.f/
.	.	[2D/	.	.
.	.	.	.	4d/
=13	=13	=13	=13	=13
0GG	1G	2D/]	1B	1d
.	.	1d	.	.
.	2r	.	2B\	1r
.	[2G\	2d\	2B\	.
=14	=14	=14	=14	=14
0r	2G\]	1d	1B	1d
.	2G\	.	.	.
.	2.F\	2.D/	1A	1a
.	4D\	4E/	.	.
=15	=15	=15	=15	=15
2r	1D	2.F/	1d	2f/
1D	.	.	.	2d/
.	.	4G/	.	.
.	1r	1A	2r	[1f
2D\	.	.	[2d\	.
=16	=16	=16	=16	=16
1D	1D	1r	2d\]	1f]
.	.	.	2d\	.
2AA/	1A	2r	2.c\	1e
[2A\	.	2c\	.	.
.	.	.	4A/	.
=17	=17	=17	=17	=17
4A\]	2F\	2c\	1A	1.a
4G\	.	.	.	.
4F\	2D\	1d	.	.
4E\	.	.	.	.
2D\	[1F	.	1r	.
2A\	.	2c\	.	2a/
=18	=18	=18	=18	=18
*M2/1	*	*	*	*
*met(3)	*	*	*	*
3.D\	1F]	2d\	1A	1a
6E\	.	2A/	.	.
3F\	.	.	.	.
3.C/	1E	1r	1e	1g
6D\	.	.	.	.
3E\	.	.	.	.
=19	=19	=19	=19	=19
*M2/1	*	*	*	*
*met(C|)	*	*	*	*
1AA	1.A	2r	2c\	1r
.	.	1c	2A/	.
2r	.	.	[1c	1e
2AA/	2A\	2A/	.	.
=20	=20	=20	=20	=20
1AA	1A	1e	1c]	1e
1E	1G	2e\	1B	1g
.	.	2E/	.	.
=21	=21	=21	=21	=21
2r	1r	1E	1.e	1.g
2E\	.	.	.	.
1E	1E	1G	.	.
.	.	.	2e\	2g/
=22	=22	=22	=22	=22
1G	1E	1r	1e	2g/
.	.	.	.	2g/
[1GG	1G	2r	1d	1g
.	.	2B\	.	.
=23	=23	=23	=23	=23
2GG/]	1.G	1B	1r	1.d
2GG/	.	.	.	.
2GG/	.	1d	1B	.
2GG/	2G\	.	.	4e/
.	.	.	.	4f/
=24	=24	=24	=24	=24
2GG/	2G\	0r	1B	2g/
2GG/	2G\	.	.	2d/
1B-	1G	.	1d	1g
=25	=25	=25	=25	=25
2.A\	1.D	1r	1.d	0f
4G\	.	.	.	.
4F\	.	2r	.	.
4E\	.	.	.	.
2D\	4E\	2A/	2d\	.
.	4F\	.	.	.
=26	=26	=26	=26	=26
2GG/	2G\	2B\	2d\	0r
2D\	2D\	2A/	2d\	.
1GG	1G	2B\	1d	.
.	.	[2d\	.	.
=27	=27	=27	=27	=27
[0D	0F	2d\]	1.A	1a
.	.	4c\	.	.
.	.	4B\	.	.
.	.	2A/	.	2a/
.	.	2D/	4B\	2a/
.	.	.	4c\	.
=28	=28	=28	=28	=28
0D]	0r	2.F/	2d\	1f
.	.	.	2A/	.
.	.	4G/	.	.
.	.	1A	1d	1f
=29	=29	=29	=29	=29
1r	1A	0r	0c	1e
1AA	2A\	.	.	[1a
.	2A\	.	.	.
=30	=30	=30	=30	=30
2A\	1F	1c	0r	2a/]
2A\	.	.	.	2a/
1D	1F	2d\	.	2a/
.	.	2d\	.	2a/
=31	=31	=31	=31	=31
1E	1E	1B	1e	1g
1AA	[1A	1c	2e\	2.e/
.	.	.	2e\	.
.	.	.	.	4e/
=32	=32	=32	=32	=32
2AA/	2A\]	1A	1c	1e
2AA/	2A\	.	.	.
2AA/	2A\	2e\	1c	1r
2AA/	2A\	2e\	.	.
=33	=33	=33	=33	=33
1E	1G	2e\	1B	1r
.	.	2e\	.	.
2.C/	2.E\	1e	[1e	2.g/
4C/	4E\	.	.	4g/
=34	=34	=34	=34	=34
1C	1E	2.c\	2e\]	2g/
.	.	.	2e\	2g/
.	.	4c\	.	.
2r	1r	1c	2e\	2g/
2C/	.	.	2e\	2g/
=35	=35	=35	=35	=35
2D\	1r	2r	1d	2.f/
2D\	.	2A/	.	.
.	.	.	.	4d/
2r	2.G\	2G/	2.B\	1d
2GG/	.	2d\	.	.
.	4G\	.	4B\	.
=36	=36	=36	=36	=36
*	*	*M2/1	*	*
*	*	*met(3)	*	*
2GG/	2G\	3%2d	1B	1r
2GG/	2G\	.	.	.
.	.	3d\	.	.
1B-	2G\	3d\	1r	1d
.	.	3%2d	.	.
.	2G\	.	.	.
=37	=37	=37	=37	=37
*	*	*M2/1	*	*
*	*	*met(C|)	*	*
1A	2.F\	1D	1r	1.a
.	4D\	.	.	.
2r	1D	2r	2.d\	.
2D\	.	2f\	.	2a/
.	.	.	4d\	.
=38	=38	=38	=38	=38
2D\	1r	2f\	2d\	1a
2D\	.	2f\	2d\	.
1D	1D	1f	2d\	1a
.	.	.	2d\	.
=39	=39	=39	=39	=39
1AA	1.A	0e	2.c\	2r
.	.	.	.	2cc\
.	.	.	4A/	.
2r	.	.	1A	2.cc\
2AA/	2A\	.	.	.
.	.	.	.	4cc\
=40	=40	=40	=40	=40
2AA/	1A	2r	1r	2cc\
2AA/	.	2E/	.	2cc\
1FF	1A	2F/	1A	1a
.	.	2F/	.	.
=41	=41	=41	=41	=41
0C	2r	2.E/	1.e	0g
.	2c\	.	.	.
.	.	4F/	.	.
.	2.c\	1G	.	.
.	.	.	2e\	.
.	4c\	.	.	.
=42	=42	=42	=42	=42
0r	2c\	2r	1e	0r
.	2c\	2C/	.	.
.	1A	2c\	1e	.
.	.	2c\	.	.
=43	=43	=43	=43	=43
2r	0G	2B-i\	2r	2r
2GG/	.	2G/	2g\	2b-\
2.GG/	.	2.B-i\	2.g\	2b-\
.	.	.	.	2b-\
4GG/	.	4c\	4g\	.
=44	=44	=44	=44	=44
2G\	0r	2d\	2g\	2b-i\
2G\	.	2B-i\	2g\	2b-i\
1C	.	2c\	1e	1g
.	.	2c\	.	.
=45	=45	=45	=45	=45
2D\	2r	2A/	0d	1f
2BB-/	2B-\	2D/	.	.
2BB-/	2B-\	[1d	.	1f
2BB-/	2B-\	.	.	.
=46	=46	=46	=46	=46
2GG/	2B-i\	1d]	0r	1.b-i
2GG/	2B-i\	.	.	.
1GG	1G	1d	.	.
.	.	.	.	2b-i\
=47	=47	=47	=47	=47
2D\	1F	2r	2r	1a
2F\	.	2D/	2f\	.
2D\	1F	2F/	2f\	1a
2F\	.	2D/	2f\	.
=48	=48	=48	=48	=48
1BB-i	1.B-i	2F/	2f\	2f/
.	.	2D/	2f\	2f/
1BB-i	.	2.F/	1d	1f
.	2B-i\	.	.	.
.	.	4F/	.	.
=49	=49	=49	=49	=49
2.FF/	1A	2F/	1c	0r
.	.	2A/	.	.
4FF/	.	.	.	.
1FF	1A	2c\	1c	.
.	.	2A/	.	.
=50	=50	=50	=50	=50
0r	2F\	2c\	1.f	1a
.	2F\	2A/	.	.
.	1F	2.c\	.	2a/
.	.	.	2f\	2a/
.	.	4c\	.	.
=51	=51	=51	=51	=51
1C	0r	1c	1e	1g
2C/	.	2r	1e	1g
2C/	.	2c\	.	.
=52	=52	=52	=52	=52
1F	1A	2c\	2c\	2a/
.	.	2A/	2c\	2a/
1FF	2A\	2c\	1c	1a
.	2A\	2A/	.	.
=53	=53	=53	=53	=53
2GG/	1G	2B-i\	0r	1d
2GG/	.	2G/	.	.
1BB-i	1G	1D	.	1d
=54	=54	=54	=54	=54
0AA	2A\	1E	1e	1c
.	2A\	.	.	.
.	1A	2r	2e\	2A/
.	.	2E/	2e\	[2a/
=55	=55	=55	=55	=55
0r	1D	2F/	1d	4a/]
.	.	.	.	4g/
.	.	2D/	.	4f/
.	.	.	.	4e/
.	1D	2.A/	1d	1f
.	.	4B\	.	.
=56	=56	=56	=56	=56
1r	1C	0c	2e\	0e
.	.	.	2e\	.
1AA	2AA/	.	1e	.
.	[2A\	.	.	.
=57	=57	=57	=57	=57
2FF/	4A\]	2r	1A	0r
.	4G\	.	.	.
2FF/	4F\	2c\	.	.
.	4E\	.	.	.
1FF	1F	2c\	1A	.
.	.	2c\	.	.
=58	=58	=58	=58	=58
1C	0E	1c	1G	1g
2r	.	1G	2E/	2g/
2C/	.	.	[2e\	2g/
=59	=59	=59	=59	=59
2C/	0r	2r	4e\]	2g/
.	.	.	4d\	.
2C/	.	2G/	4c\	2g/
.	.	.	4B\	.
1C	.	2G/	1c	2e/
.	.	2G/	.	2e/
=60	=60	=60	=60	=60
0GG	1G	1G	0B	1d
.	2G\	2D/	.	1d
.	2G\	2d\	.	.
=61	=61	=61	=61	=61
2r	2G\	2B\	0r	1.g
2GG/	2G\	2G/	.	.
2G\	2E\	2B\	.	.
2C/	2E\	2c\	.	2g/
=62	=62	=62	=62	=62
*M2/1	*	*	*	*
*met(3)	*	*	*	*
3F\	1D	2d\	1d	1f
3D\	.	.	.	.
.	.	2A/	.	.
3F\	.	.	.	.
3.BB-i/	1D	2B-\	2d\	1r
6C/	.	2F/	2d\	.
3D\	.	.	.	.
=63	=63	=63	=63	=63
*M2/1	*	*	*	*
*met(C|)	*	*	*	*
2GG/	1.G	2.B-i\	2d\	1d
2GG/	.	.	2d\	.
.	.	4c\	.	.
2.GG/	.	1d	2B\	1d
.	2G\	.	2B\	.
4GG/	.	.	.	.
=64	=64	=64	=64	=64
0D	1F	2r	1A	2.f/
.	.	2D/	.	.
.	.	.	.	4g/
.	1r	2.F/	1A	1a
.	.	4G/	.	.
=65	=65	=65	=65	=65
0r	1D	1A	1.d	1.f
.	1D	1r	.	.
.	.	.	2d\	2d/
=66	=66	=66	=66	=66
0r	2.F\	0r	1c	1a
.	4G\	.	.	.
.	1A	.	1r	2e/
.	.	.	.	2e/
=67	=67	=67	=67	=67
2D\	1.F	1r	1A	2f/
2D\	.	.	.	2f/
2D\	.	2A/	1A	1f
2D\	2D\	2A/	.	.
=68	=68	=68	=68	=68
1AA	1A	2.A/	2.c\	0e
.	.	4A/	4d\	.
1AA	2E\	1c	1e	.
.	2E\	.	.	.
=69	=69	=69	=69	=69
1A	2F\	2r	1.c	0r
.	2F\	2c\	.	.
1A	1F	2A/	.	.
.	.	[2c\	2A/	.
=70	=70	=70	=70	=70
1AA	0E	2c\]	1e	1r
.	.	4B\	.	.
.	.	4A/	.	.
1E	.	2G/	2B\	1g
.	.	2G/	2B\	.
=71	=71	=71	=71	=71
2C/	0r	2.E/	2c\	1g
2C/	.	.	2c\	.
.	.	4F/	.	.
1C	.	1G	1c	2.e/
.	.	.	.	4f/
=72	=72	=72	=72	=72
1GG	1r	0G	0B	1.g
1r	1G	.	.	.
.	.	.	.	2g/
=73	=73	=73	=73	=73
1GG	1G	1B	0r	1d
1C	2.E\	1c	.	1e
.	4F\	.	.	.
=74	=74	=74	=74	=74
2.GG/	1.G	2.B\	1r	0d
4GG/	.	4B\	.	.
2G\	.	2B\	1d	.
2G\	2G\	2B\	.	.
=75	=75	=75	=75	=75
1F	1D	1A	1d	0r
1G	1E	1G	2.B\	.
.	.	.	4c\	.
=76	=76	=76	=76	=76
*	*	*	*	*M2/1
*	*	*	*	*met(3)
0F	0D	2A/	1.d	3%2f
.	.	4D/	.	.
.	.	.	.	3%2f
.	.	4E/	.	.
.	.	4F/	.	.
.	.	4G/	.	.
.	.	.	.	3%2f
.	.	4A/	2d\	.
.	.	4B\	.	.
=77	=77	=77	=77	=77
0r	0r	1c	1A	3%2e
.	.	.	.	3%2f
.	.	1d	1B	.
.	.	.	.	3%2d
=78	=78	=78	=78	=78
*	*M2/1	*	*	*
*	*met(3)	*	*	*
0r	3%2F	0D	0A	3%2a
.	3%2F	.	.	3%2a
.	3%2F	.	.	3%2a
=79	=79	=79	=79	=79
0r	3%2E	0r	0r	3%2g
.	3%2F	.	.	3%2c
.	3%2D	.	.	3%2f
=80	=80	=80	=80	=80
*	*	*	*M3/1	*M2/1
*	*	*	*met(3)	*met(C|)
0r	3%2A	0r	3%2c	1e
.	3%2A	.	3%2c	.
.	.	.	.	2r
.	3%2A	.	3%2c	.
.	.	.	.	2c/
=81	=81	=81	=81	=81
0r	3%2G	0r	3%2B	2d/
.	.	.	.	2e/
.	3%2C	.	3%2c	.
.	.	.	.	1c
.	3%2F	.	3%2A	.
=82	=82	=82	=82	=82
*	*M2/1	*	*	*
*	*met(C|)	*	*	*
0r	1E	0r	3%2e	2g/
.	.	.	.	2g/
.	.	.	3%2e	.
.	2r	.	.	2g/
.	.	.	3%2e	.
.	2C/	.	.	2e/
=83	=83	=83	=83	=83
0r	2D\	0r	3%2d	2f/
.	2E\	.	.	2g/
.	.	.	3%2G	.
.	1C	.	.	2e/
.	.	.	3%2c	.
.	.	.	.	2e/
=84	=84	=84	=84	=84
*	*	*	*M2/1	*
*	*	*	*met(C|)	*
0r	2G\	0r	1B	2d/
.	2G\	.	.	2d/
.	2G\	.	2r	2g/
.	2E\	.	2G/	2g/
=85	=85	=85	=85	=85
0r	2F\	0r	2A/	2f/
.	2G\	.	2B\	2d/
.	2E\	.	1G	1g
.	2E\	.	.	.
=86	=86	=86	=86	=86
0r	2D\	0r	2d\	1f
.	2D\	.	2d\	.
.	2G\	.	2d\	1d
.	2G\	.	2B\	.
=87	=87	=87	=87	=87
0r	2F\	0r	2c\	1a
.	2D\	.	2d\	.
.	1G	.	2B\	1d
.	.	.	2B\	.
=88	=88	=88	=88	=88
2r	1F	1A	2A/	1.f
2D\	.	.	2A/	.
2.D\	1D	[1A	2d\	.
.	.	.	2d\	2f/
4D\	.	.	.	.
=89	=89	=89	=89	=89
1AA	1A	2A/]	2c\	2e/
.	.	2A/	2A/	2e/
2r	1D	1A	1d	2f/
2A\	.	.	.	2d/
=90	=90	=90	=90	=90
2A\	1.F	0r	1c	1.a
2A\	.	.	.	.
2F\	.	.	1A	.
2F\	2F\	.	.	2a/
=91	=91	=91	=91	=91
1C	2E\	0r	1e	1g
.	2E\	.	.	.
1D	2F\	.	1A	1f
.	2D\	.	.	.
=92	=92	=92	=92	=92
0AA	1.A	2r	1.c	1e
.	.	2e\	.	.
.	.	2e\	.	1r
.	2A\	2c\	2c\	.
=93	=93	=93	=93	=93
0r	1G	2d\	2B\	0r
.	.	2e\	2B\	.
.	1F	2A/	2c\	.
.	.	[2c\	2A/	.
=94	=94	=94	=94	=94
1.C	1E	2c\]	1.e	1.g
.	.	4B\	.	.
.	.	4A/	.	.
.	1r	1G	.	.
2C/	.	.	2e\	2g/
=95	=95	=95	=95	=95
2D\	0r	1r	1d	2f/
2BB-/	.	.	.	2d/
1C	.	[1G	1c	1e
=96	=96	=96	=96	=96
0GG	1.G	2G/]	1B	1d
.	.	2G/	.	.
.	.	2d\	1r	2r
.	2G\	2d\	.	2b-\
=97	=97	=97	=97	=97
*	*	*M2/1	*	*
*	*	*met(3)	*	*
1D	2F\	3d\	0r	2a/
.	.	3A/	.	.
.	2D\	.	.	2f/
.	.	3B\	.	.
*	*	*M2/1	*	*
*	*	*met(C|)	*	*
1C	1E	1c	.	1g
=98	=98	=98	=98	=98
1.D	1D	2F/	1.d	2.f/
.	.	2F/	.	.
.	.	.	.	4f/
.	2r	2F/	.	2f/
2BB-i/	2B-\	2F/	2d\	2d/
=99	=99	=99	=99	=99
2C/	2A\	2E/	2c\	2e/
2D\	2F\	2D/	2A/	2f/
1GG	1G	2D/	1B	2.d/
.	.	2d\	.	.
.	.	.	.	4e/
=100	=100	=100	=100	=100
2r	2.F\	2d\	1A	1f
2D\	.	2d\	.	.
.	4F\	.	.	.
2D\	2F\	2.A/	2r	1a
2F\	2D\	.	2f\	.
.	.	4B\	.	.
=101	=101	=101	=101	=101
2C/	2E\	1c	2e\	2g/
2AA/	2F\	.	2c\	2a/
1A	2.D\	1r	1d	[1f
.	4E\	.	.	.
=102	=102	=102	=102	=102
1r	1F	0r	2.c\	1f]
.	.	.	4c\	.
1AA	1A	.	2c\	1e
.	.	.	2A/	.
=103	=103	=103	=103	=103
2E\	2G\	2r	2B\	0r
2AA/	2A\	2A/	2c\	.
1D	[1F	2A/	2.A/	.
.	.	2A/	.	.
.	.	.	4B\	.
=104	=104	=104	=104	=104
2.AA/	1F]	1A	1c	1r
4BB/	.	.	.	.
1C	1E	1G	1e	2r
.	.	.	.	2g/
=105	=105	=105	=105	=105
2r	0r	2r	2d\	2f/
2C/	.	2G/	2e\	2g/
2C/	.	2G/	[1c	2.e/
2C/	.	2G/	.	.
.	.	.	.	4f/
=106	=106	=106	=106	=106
1C	1r	2.E/	1c]	1g
.	.	4F/	.	.
1GG	2r	2G/	1B	2r
.	2G\	[2d\	.	2g/
=107	=107	=107	=107	=107
2D\	2F\	2d\]	0r	2a/
2GG/	2G\	2d\	.	1g
1C	2.E\	1c	.	.
.	.	.	.	4f/
.	4F\	.	.	4e/
=108	=108	=108	=108	=108
0GG	1G	0B	1r	0d
.	2r	.	2r	.
.	2G\	.	2d\	.
=109	=109	=109	=109	=109
1r	2A\	1r	2c\	2r
.	1G	.	2d\	2d/
1G	.	2r	2.B\	2d/
.	4F\	2d\	.	2d/
.	4E\	.	4c\	.
=110	=110	=110	=110	=110
2F\	0D	2d\	1d	2.f/
1D	.	1f	.	.
.	.	.	.	4g/
.	.	.	2r	1a
4C/	.	4e\	2d\	.
4BB/	.	4d\	.	.
=111	=111	=111	=111	=111
2AA/	2r	2c\	2e\	1r
2D\	2D\	2d\	1d	.
2r	2D\	1A	.	[1a
2D\	2D\	.	4c\	.
.	.	.	4B\	.
=112	=112	=112	=112	=112
2D\	2.F\	2r	0A	2a/]
2D\	.	2A/	.	2a/
.	4G\	.	.	.
2.F\	1A	2A/	.	1a
.	.	2A/	.	.
4G\	.	.	.	.
=113	=113	=113	=113	=113
1A	1r	2.c\	2r	[0e
.	.	.	2A/	.
.	.	4d\	.	.
1AA	[1A	1e	2A/	.
.	.	.	2A/	.
=114	=114	=114	=114	=114
2r	2A\]	1A	2.c\	0e_
[1.AA	2A\	.	.	.
.	.	.	4d\	.
.	1A	[1c	1e	.
=115	=115	=115	=115	=115
2AA/]	[0El	2c\]	1r	0e]
2AA/	.	2c\	.	.
1AA	.	1c	[1e	.
=116	=116	=116	=116	=116
[0EEl	0E_	1.B	2e\]	[0gl
.	.	.	2e\	.
.	.	.	1e	.
.	.	2G/	.	.
=117	=117	=117	=117	=117
0EE]	0E]	0Gl	0Bl	0g]
==	==	==	==	==
*-	*-	*-	*-	*-
!!!RDF**kern: %=rational rhythm
!!!rscale-alt: 1/2
!!!RDF**kern: l=long note in original notation
!!!RDF**kern: i=editorial accidental
!!!ENC:	Adam Detzner 2011/04/04; Victoria Chang 2011/04/10
!!!END:	2011/04/04/ 
!!!EED:	Jesse Rodin
!!!EEV:	2011/04/13/
!!attribution-level@Jos: 2 (slightly less secure)
!!!ONB:	Translated from MusicXML and edited on 2011/04/13/ by Craig Sapp
!!muse2ps: C^@{COM}\n@{SCT}^i2I100v90,90,90,90,130Q16
